!! 00000] TT[WS
!!!OTL: Maicai
!!!ARE: Asia, China,ÿShanxi
!! Ethnic Group: Han
!! WI, 57
!!!SCT: J0063
!!!YEM: Copyright 1995, estate of Helmut Schaffrath.
**kern
*ICvox
*Ivox
*M2/4
*k[b-]
*F:
{8ff
16cc
16cc
8ff
8cc
=1
16cc
16b-
16cc
16dd
8cc
8g
=2
8cc
8g
8cc
16a
16g
=3
8.f
16a
4g}
=4
{16f
16d
8f
8cc
16a
16cc
=5
8g
8cc
8g
16f
16d
=6
8c
8f
16g
16f
16f
16d
=7
8.c
16B-
4c}
=8
{16a
16g
16f
16a
4g
=9
16f
16d
8f
8cc
16a
16cc
=10
8g
8cc
8g
16f
16d
=11
8c
8f
16g
16f
16f
16d
=12
8.c
16B-
4c}
==
!!!AGN: Xiaodiao. Maimai
!!!ONB: ESAC (Essen Associative Code) Database: CHINA
!!!AMT: simple duple
!!!AIN: vox
!!!EED: Helmut Schaffrath
!!!EEV: 1.0
*-
